Pods/ProtonCore-UIFoundations/libraries/UIFoundations/Sources/Assets.xcassets/Images/IconSet/ic-notepad-checklist.imageset/ic-notepad-checklist.svg

<svg width="24" height="24" viewBox="0 0 24 24" fill="none" xmlns="http://www.w3.org/2000/svg">
<path fill-rule="evenodd" clip-rule="evenodd" d="M10.5 1.5C10.5 0.671573 11.1716 0 12 0C12.8284 0 13.5 0.671573 13.5 1.5H15.75C16.5784 1.5 17.25 2.17157 17.25 3H18C19.6569 3 21 4.34315 21 6V19.5C21 21.1569 19.6569 22.5 18 22.5H6C4.34315 22.5 3 21.1569 3 19.5V6C3 4.34315 4.34315 3 6 3H6.75C6.75 2.17157 7.42157 1.5 8.25 1.5H10.5ZM12 3H8.25V3.75V4.5H15.75V3.75V3H12ZM18 4.5H17.25C17.25 5.32843 16.5784 6 15.75 6H8.25C7.42157 6 6.75 5.32843 6.75 4.5H6C5.17157 4.5 4.5 5.17157 4.5 6V19.5C4.5 20.3284 5.17157 21 6 21H18C18.8284 21 19.5 20.3284 19.5 19.5V6C19.5 5.17157 18.8284 4.5 18 4.5ZM9.21967 7.71967C9.51256 7.42678 9.98744 7.42678 10.2803 7.71967C10.5732 8.01256 10.5732 8.48744 10.2803 8.78033L8.78033 10.2803C8.48744 10.5732 8.01256 10.5732 7.71967 10.2803L6.96967 9.53033C6.67678 9.23744 6.67678 8.76256 6.96967 8.46967C7.26256 8.17678 7.73744 8.17678 8.03033 8.46967L8.25 8.68934L9.21967 7.71967ZM12 9C11.5858 9 11.25 9.33579 11.25 9.75C11.25 10.1642 11.5858 10.5 12 10.5H16.5C16.9142 10.5 17.25 10.1642 17.25 9.75C17.25 9.33579 16.9142 9 16.5 9H12ZM11.25 13.5C11.25 13.0858 11.5858 12.75 12 12.75H16.5C16.9142 12.75 17.25 13.0858 17.25 13.5C17.25 13.9142 16.9142 14.25 16.5 14.25H12C11.5858 14.25 11.25 13.9142 11.25 13.5ZM11.25 17.25C11.25 16.8358 11.5858 16.5 12 16.5H16.5C16.9142 16.5 17.25 16.8358 17.25 17.25C17.25 17.6642 16.9142 18 16.5 18H12C11.5858 18 11.25 17.6642 11.25 17.25ZM8.25 12.75C7.83579 12.75 7.5 13.0858 7.5 13.5C7.5 13.9142 7.83579 14.25 8.25 14.25H8.26465C8.67886 14.25 9.01465 13.9142 9.01465 13.5C9.01465 13.0858 8.67886 12.75 8.26465 12.75H8.25ZM7.5 17.25C7.5 16.8358 7.83579 16.5 8.25 16.5H8.26465C8.67886 16.5 9.01465 16.8358 9.01465 17.25C9.01465 17.6642 8.67886 18 8.26465 18H8.25C7.83579 18 7.5 17.6642 7.5 17.25Z" fill="#0C0C14"/>
</svg>

<svg xmlns="http://www.w3.org/2000/svg" width="24" height="24" viewBox="0 0 24 24">
  <g class="ic-notepad-checklist">
    <path fill-rule="evenodd" d="M10.5 1.5a1.5 1.5 0 0 1 3 0h2.25a1.5 1.5 0 0 1 1.5 1.5H18a3 3 0 0 1 3 3v13.5a3 3 0 0 1-3 3H6a3 3 0 0 1-3-3V6a3 3 0 0 1 3-3h.75a1.5 1.5 0 0 1 1.5-1.5h2.25ZM12 3H8.25v1.5h7.5V3H12Zm6 1.5h-.75a1.5 1.5 0 0 1-1.5 1.5h-7.5a1.5 1.5 0 0 1-1.5-1.5H6A1.5 1.5 0 0 0 4.5 6v13.5A1.5 1.5 0 0 0 6 21h12a1.5 1.5 0 0 0 1.5-1.5V6A1.5 1.5 0 0 0 18 4.5ZM9.22 7.72a.75.75 0 1 1 1.06 1.06l-1.5 1.5a.75.75 0 0 1-1.06 0l-.75-.75a.75.75 0 0 1 1.06-1.06l.22.22.97-.97ZM12 9a.75.75 0 0 0 0 1.5h4.5a.75.75 0 0 0 0-1.5H12Zm-.75 4.5a.75.75 0 0 1 .75-.75h4.5a.75.75 0 0 1 0 1.5H12a.75.75 0 0 1-.75-.75Zm0 3.75a.75.75 0 0 1 .75-.75h4.5a.75.75 0 0 1 0 1.5H12a.75.75 0 0 1-.75-.75Zm-3-4.5a.75.75 0 0 0 0 1.5h.015a.75.75 0 0 0 0-1.5H8.25Zm-.75 4.5a.75.75 0 0 1 .75-.75h.015a.75.75 0 0 1 0 1.5H8.25a.75.75 0 0 1-.75-.75Z" class="Icon"/>
  </g>
</svg>
